X: 10210
T: Dirty Trettles, The
R: slide
M: 12/8
K: Gmajor
d2 g gfe d2 B B2 d|c2 e edB c2 A ABc|
d2 g gfe d2 B B2 d|1 c2 e edB G3 G2 z:|2 c2 e edB G3 GBd||
gbg faf (3efg e d2 B|c2 e edB c2 A ABd|
gbg faf (3efg e d2 B|1 c2 e edB G3 GBd:|2 c2 e edB G3 G2 z||

